src/assets/ikoner/benken.svg

<?xml version="1.0" encoding="UTF-8"?>
<svg width="40px" height="50px" viewBox="0 0 24 30" version="1.1" xmlns="http://www.w3.org/2000/svg" xmlns:xlink="http://www.w3.org/1999/xlink">
    <!-- Generator: Sketch 57.1 (83088) - https://sketch.com -->
    <title>Color/17-files/task-checklist</title>
    <desc>Created with Sketch.</desc>
    <g id="-----↳-Versjon-10" stroke="none" stroke-width="1" fill="none" fill-rule="evenodd">
        <g id="Godkjent-avtale---automatisk-journalføring" transform="translate(-378.000000, -2635.000000)">
            <g id="Color/17-files/task-checklist" transform="translate(375.000000, 2635.000000)">
                <g id="Group-15-Copy-2" transform="translate(3.000000, 0.000000)">
                    <rect id="Rectangle" fill="#D8A25C" x="0" y="2" width="18" height="22" rx="1.008"></rect>
                    <rect id="Rectangle" fill="#E7E9E9" x="2" y="4" width="14" height="18"></rect>
                    <path d="M13.5,9 L7.5,9 C7.224,9 7,8.776 7,8.5 C7,8.224 7.224,8 7.5,8 L13.5,8 C13.776,8 14,8.224 14,8.5 C14,8.776 13.776,9 13.5,9" id="Fill-8-Copy" fill="#59514B"></path>
                    <path d="M13.5454545,4 L4.45454545,4 C4.20363636,4 4,3.8208 4,3.6 L4,2 C4,1.7792 4.20363636,1.6 4.45454545,1.6 L6.77272727,1.6 C6.98363636,0.688 7.90272727,0 9,0 C10.0972727,0 11.0163636,0.688 11.2272727,1.6 L13.5454545,1.6 C13.7963636,1.6 14,1.7792 14,2 L14,3.6 C14,3.8208 13.7963636,4 13.5454545,4 L13.5454545,4 Z" id="Fill-4-Copy" fill="#005B82"></path>
                    <path d="M13.5,12 L7.5,12 C7.224,12 7,11.776 7,11.5 C7,11.224 7.224,11 7.5,11 L13.5,11 C13.776,11 14,11.224 14,11.5 C14,11.776 13.776,12 13.5,12" id="Fill-10-Copy" fill="#59514B"></path>
                    <path d="M13.5,15.0005 L7.5,15.0005 C7.224,15.0005 7,14.7755 7,14.5005 C7,14.2245 7.224,14.0005 7.5,14.0005 L13.5,14.0005 C13.776,14.0005 14,14.2245 14,14.5005 C14,14.7755 13.776,15.0005 13.5,15.0005" id="Fill-12-Copy" fill="#59514B"></path>
                    <path d="M13.5,18.0005 L7.5,18.0005 C7.224,18.0005 7,17.7755 7,17.5005 C7,17.2245 7.224,17.0005 7.5,17.0005 L13.5,17.0005 C13.776,17.0005 14,17.2245 14,17.5005 C14,17.7755 13.776,18.0005 13.5,18.0005" id="Fill-14-Copy" fill="#59514B"></path>
                    <path d="M5.33333333,9 L4.66666667,9 C4.29866667,9 4,8.776 4,8.5 C4,8.224 4.29866667,8 4.66666667,8 L5.33333333,8 C5.70133333,8 6,8.224 6,8.5 C6,8.776 5.70133333,9 5.33333333,9" id="Fill-16-Copy" fill="#59514B"></path>
                    <path d="M5.33333333,12 L4.66666667,12 C4.29866667,12 4,11.776 4,11.5 C4,11.224 4.29866667,11 4.66666667,11 L5.33333333,11 C5.70133333,11 6,11.224 6,11.5 C6,11.776 5.70133333,12 5.33333333,12" id="Fill-18-Copy" fill="#59514B"></path>
                    <path d="M5.33333333,15.0005 L4.66666667,15.0005 C4.29866667,15.0005 4,14.7755 4,14.5005 C4,14.2245 4.29866667,14.0005 4.66666667,14.0005 L5.33333333,14.0005 C5.70133333,14.0005 6,14.2245 6,14.5005 C6,14.7755 5.70133333,15.0005 5.33333333,15.0005" id="Fill-20-Copy" fill="#59514B"></path>
                    <path d="M5.33333333,18.0005 L4.66666667,18.0005 C4.29866667,18.0005 4,17.7755 4,17.5005 C4,17.2245 4.29866667,17.0005 4.66666667,17.0005 L5.33333333,17.0005 C5.70133333,17.0005 6,17.2245 6,17.5005 C6,17.7755 5.70133333,18.0005 5.33333333,18.0005" id="Fill-22-Copy" fill="#59514B"></path>
                </g>
            </g>
        </g>
    </g>
</svg>

<svg width="40" height="50" viewBox="0 0 24 30" xmlns="http://www.w3.org/2000/svg"><g fill="none" fill-rule="evenodd"><rect fill="#D8A25C" y="2" width="18" height="22" rx="1.008"/><path fill="#E7E9E9" d="M2 4h14v18H2z"/><path d="M13.5 9h-6a.5.5 0 0 1 0-1h6a.5.5 0 0 1 0 1" fill="#59514B"/><path d="M13.545 4h-9.09C4.204 4 4 3.82 4 3.6V2c0-.22.204-.4.455-.4h2.318C6.983.688 7.903 0 9 0s2.016.688 2.227 1.6h2.318c.251 0 .455.18.455.4v1.6c0 .22-.204.4-.455.4z" fill="#005B82"/><path d="M13.5 12h-6a.5.5 0 0 1 0-1h6a.5.5 0 0 1 0 1M13.5 15h-6a.5.5 0 0 1 0-1h6a.5.5 0 0 1 0 1M13.5 18h-6a.5.5 0 0 1 0-1h6a.5.5 0 0 1 0 1M5.333 9h-.666C4.299 9 4 8.776 4 8.5s.299-.5.667-.5h.666c.368 0 .667.224.667.5s-.299.5-.667.5M5.333 12h-.666C4.299 12 4 11.776 4 11.5s.299-.5.667-.5h.666c.368 0 .667.224.667.5s-.299.5-.667.5M5.333 15h-.666C4.299 15 4 14.776 4 14.5s.299-.5.667-.5h.666c.368 0 .667.225.667.5s-.299.5-.667.5M5.333 18h-.666C4.299 18 4 17.776 4 17.5s.299-.5.667-.5h.666c.368 0 .667.224.667.5s-.299.5-.667.5" fill="#59514B"/></g></svg>
